static/logos/fathom-wordmark-color-1.svg

<svg width="50" height="13" viewBox="0 0 50 13" fill="none" xmlns="http://www.w3.org/2000/svg">
<g clip-path="url(#clip0_1_2807)">
<path d="M2.99 4.06275V3.57875C2.99 3.4494 2.9386 3.32533 2.84715 3.23385C2.75568 3.1424 2.6316 3.091 2.50225 3.091H1.56875V2.6425C1.56725 2.1175 1.68575 1.8045 1.79225 1.69025L1.79725 1.684C1.86992 1.6124 1.96121 1.56259 2.06075 1.54025C2.40528 1.48481 2.7538 1.4578 3.10275 1.4595H3.282C3.34608 1.45953 3.40952 1.44694 3.46872 1.42245C3.52792 1.39795 3.58172 1.36203 3.62705 1.31673C3.67237 1.27144 3.70833 1.21766 3.73285 1.15846C3.75738 1.09927 3.77 1.03582 3.77 0.97175V0.53475C3.77025 0.42148 3.73097 0.311668 3.65897 0.224234C3.58697 0.1368 3.48672 0.077217 3.3755 0.05575C3.3165 0.04425 3.2505 0.03275 3.17725 0.0215C3.08525 0.00725 2.602 0 2.507 0H2.50025C1.715 0 1.046 0.1835 0.598 0.664C0.1595 1.147 0.00225 1.82875 0 2.6575V11.7898C0 11.9191 0.0513878 12.0432 0.142859 12.1347C0.23433 12.2261 0.35839 12.2775 0.48775 12.2775H1.081C1.14507 12.2776 1.20853 12.265 1.26773 12.2405C1.32694 12.216 1.38073 12.1801 1.42604 12.1348C1.47134 12.0895 1.50727 12.0357 1.53175 11.9765C1.55624 11.9173 1.56882 11.8538 1.56875 11.7898V4.55H2.50175C2.56582 4.55013 2.6293 4.53762 2.68852 4.5132C2.74775 4.48877 2.80158 4.4529 2.84693 4.40765C2.89228 4.36237 2.92828 4.30863 2.95283 4.24945C2.97738 4.19025 2.99 4.12682 2.99 4.06275Z" fill="#272827"/>
<path d="M44.8648 12.0953C44.9083 12.1424 44.9611 12.1802 45.0196 12.2063C45.0783 12.2323 45.1416 12.2461 45.2058 12.2467H45.8091C45.9103 12.2468 46.0088 12.2153 46.0913 12.1567C46.1738 12.0981 46.2361 12.0153 46.2693 11.9198L49.9693 1.30451C49.9951 1.231 50.0028 1.1524 49.9918 1.07529C49.9811 0.998187 49.9518 0.924805 49.9068 0.86129C49.8616 0.797775 49.8021 0.745975 49.7328 0.710217C49.6636 0.67446 49.5868 0.655787 49.5091 0.655762H48.9161C48.8148 0.655617 48.7158 0.687062 48.6333 0.745717C48.5508 0.804375 48.4886 0.887322 48.4553 0.983012L44.7553 11.5983C44.7363 11.6486 44.7266 11.702 44.7266 11.7557C44.7278 11.8823 44.7773 12.0036 44.8646 12.0953" fill="#7476EB"/>
<path d="M33.0268 12.2461H33.6043C33.6683 12.2462 33.7318 12.2336 33.7911 12.2092C33.8503 12.1847 33.9041 12.1487 33.9493 12.1034C33.9948 12.0581 34.0306 12.0043 34.0551 11.9451C34.0796 11.8859 34.0921 11.8225 34.0921 11.7584V6.77863C34.0946 6.49251 34.1421 6.20856 34.2326 5.93713C34.3248 5.65138 34.4636 5.38283 34.6433 5.14238C34.8091 4.91648 35.0196 4.72713 35.2616 4.58613C35.4991 4.45328 35.7678 4.38696 36.0398 4.39413C36.3368 4.37538 36.6316 4.45386 36.8798 4.61763C37.0998 4.78698 37.2651 5.01743 37.3548 5.28013C37.4808 5.63588 37.5416 6.01136 37.5346 6.38863V11.7584C37.5346 11.8878 37.5861 12.0118 37.6776 12.1033C37.7688 12.1948 37.8931 12.2461 38.0223 12.2461H38.5998C38.6638 12.2462 38.7273 12.2336 38.7866 12.2091C38.8456 12.1846 38.8996 12.1486 38.9448 12.1033C38.9901 12.058 39.0258 12.0043 39.0503 11.9451C39.0748 11.8859 39.0873 11.8224 39.0873 11.7584V6.77863C39.0898 6.49253 39.1371 6.20858 39.2276 5.93713C39.3196 5.65126 39.4583 5.38261 39.6381 5.14213C39.8038 4.91626 40.0146 4.72693 40.2566 4.58588C40.4941 4.45308 40.7628 4.38673 41.0348 4.39388C41.3316 4.37513 41.6263 4.45358 41.8746 4.61738C42.0948 4.78651 42.2601 5.01691 42.3496 5.27963C42.4756 5.63548 42.5363 6.01103 42.5293 6.38838V11.7584C42.5293 11.8878 42.5808 12.0118 42.6723 12.1033C42.7636 12.1948 42.8878 12.2461 43.0171 12.2461H43.5946C43.6586 12.2462 43.7221 12.2336 43.7813 12.2092C43.8406 12.1847 43.8943 12.1487 43.9396 12.1034C43.9851 12.0581 44.0208 12.0043 44.0453 11.9451C44.0698 11.8859 44.0823 11.8225 44.0823 11.7584V6.24763C44.0968 5.65543 43.9903 5.06648 43.7693 4.51688C43.5641 4.02443 43.2123 3.60706 42.7616 3.32138C42.2796 3.03348 41.7256 2.88853 41.1643 2.90338H41.1546C40.5561 2.89816 39.9688 3.06533 39.4628 3.38488C39.1296 3.59948 38.8388 3.87386 38.6053 4.19413C38.4026 3.84198 38.1188 3.54336 37.7773 3.32313C37.3031 3.03463 36.7556 2.88891 36.2006 2.90338H36.1893C35.5963 2.89998 35.0148 3.06721 34.5143 3.38513C34.3641 3.48268 34.2231 3.59346 34.0926 3.71613V3.54113C34.0911 3.41396 34.0398 3.29238 33.9501 3.20226C33.8603 3.11213 33.7391 3.06053 33.6118 3.05838H33.0268C32.8976 3.05838 32.7733 3.10978 32.6821 3.20126C32.5906 3.29271 32.5391 3.41678 32.5391 3.54613V11.7584C32.5391 11.8878 32.5906 12.0118 32.6821 12.1033C32.7733 12.1948 32.8976 12.2461 33.0268 12.2461Z" fill="#272827"/>
<path d="M25.331 11.8128C25.9865 12.2076 26.741 12.407 27.506 12.3878H27.5152C28.2655 12.4044 29.0057 12.2122 29.6532 11.8328C30.2835 11.4406 30.778 10.8641 31.0695 10.1813C31.4002 9.38512 31.562 8.52887 31.5445 7.66685C31.5612 6.81225 31.4032 5.96322 31.0802 5.17185C30.7942 4.48537 30.3095 3.90012 29.6882 3.49135C29.0365 3.08995 28.282 2.88677 27.5167 2.9066H27.5067C26.7527 2.89072 26.0092 3.0858 25.3602 3.46985C24.7292 3.86212 24.2347 4.43955 23.944 5.12335C23.6131 5.93002 23.4547 6.79702 23.479 7.6686C23.4606 8.51232 23.615 9.35092 23.9325 10.1328C24.2141 10.8238 24.7026 11.4106 25.331 11.8128ZM25.706 5.17735C25.9025 4.92485 26.158 4.72442 26.45 4.5936C26.7855 4.45482 27.146 4.38672 27.509 4.3936C27.8635 4.3869 28.2152 4.45595 28.5407 4.5961C28.834 4.7333 29.09 4.9391 29.2867 5.1961C29.713 5.74185 29.9552 6.5426 29.9557 7.65085V7.65235C29.9557 8.79435 29.7137 9.60535 29.3027 10.1288C29.1087 10.3807 28.8552 10.5806 28.5652 10.7108C28.2307 10.8496 27.8712 10.9177 27.5092 10.9108C27.1685 10.931 26.8277 10.8682 26.5165 10.7279C26.2052 10.5875 25.9327 10.3738 25.7222 10.1051C25.2907 9.55785 25.0472 8.7641 25.0472 7.6676V7.6661C25.0472 6.51435 25.2917 5.69935 25.7067 5.1771" fill="#272827"/>
<path d="M15.189 0.519V11.7585C15.1889 11.8226 15.2015 11.886 15.226 11.9452C15.2505 12.0044 15.2864 12.0582 15.3317 12.1035C15.377 12.1488 15.4308 12.1848 15.49 12.2093C15.5492 12.2338 15.6127 12.2463 15.6768 12.2463H16.2617C16.3884 12.244 16.5092 12.1927 16.5988 12.1032C16.6884 12.0136 16.7398 11.8929 16.7423 11.7662V6.77875C16.7452 6.49595 16.7965 6.21573 16.894 5.95025C16.9964 5.66278 17.1482 5.39535 17.3425 5.16C17.5333 4.92637 17.7705 4.735 18.0392 4.598C18.3237 4.457 18.6381 4.38717 18.9555 4.3945C19.3122 4.37487 19.667 4.45865 19.9772 4.63575C20.2222 4.79432 20.4116 5.0254 20.519 5.29675C20.6564 5.64418 20.7232 6.01547 20.7155 6.389V11.759C20.7155 11.8883 20.7669 12.0124 20.8584 12.1039C20.9498 12.1953 21.0739 12.2467 21.2033 12.2467H21.8032C21.93 12.2446 22.051 12.1933 22.1407 12.1036C22.2304 12.014 22.2818 11.893 22.284 11.7662V6.248C22.2997 5.6433 22.1757 5.04315 21.9215 4.49425C21.682 3.9991 21.2993 3.5873 20.823 3.31225C20.2993 3.02715 19.7095 2.88602 19.1135 2.90325H19.1063C18.4742 2.89712 17.8524 3.06387 17.3083 3.3855C17.1055 3.50607 16.9158 3.64743 16.7423 3.80725V0.519C16.7423 0.454928 16.7296 0.391483 16.7051 0.332288C16.6806 0.273095 16.6446 0.219315 16.5993 0.17402C16.554 0.128725 16.5002 0.0928031 16.441 0.0683061C16.3818 0.0438091 16.3183 0.0312173 16.2542 0.0312501H15.669C15.542 0.0334953 15.4209 0.0849116 15.3311 0.174674C15.2413 0.264438 15.1898 0.385545 15.1875 0.5125L15.189 0.519Z" fill="#272827"/>
<path d="M11.1641 1.64302V9.65028C11.1656 10.4703 11.3256 11.1503 11.7588 11.6325C12.2088 12.121 12.8838 12.3075 13.6793 12.3075C13.7728 12.3075 13.8645 12.3046 13.9543 12.2988C14.0714 12.2926 14.1869 12.2683 14.2966 12.2268C14.3874 12.1911 14.4654 12.129 14.5206 12.0485C14.5757 11.968 14.6055 11.8729 14.6061 11.7753V11.3373C14.6059 11.2081 14.5544 11.0842 14.4629 10.9929C14.3715 10.9016 14.2475 10.8503 14.1183 10.8503H13.8893C13.6656 10.8554 13.4424 10.828 13.2266 10.769C13.1268 10.7471 13.0352 10.6977 12.9621 10.6265L12.9566 10.6198C12.8496 10.5053 12.7316 10.1913 12.7316 9.66728V4.51903H13.7498C13.8765 4.51678 13.9975 4.46543 14.0871 4.3758C14.1767 4.28618 14.2281 4.16525 14.2303 4.03853V3.54753C14.2303 3.41818 14.1789 3.2941 14.0874 3.20263C13.996 3.11115 13.8719 3.05978 13.7426 3.05978H12.7328V1.64302C12.7328 1.51367 12.6814 1.3896 12.5899 1.29813C12.4985 1.20666 12.3744 1.15527 12.2451 1.15527H11.6451C11.5181 1.15752 11.3971 1.20896 11.3073 1.29873C11.2176 1.38851 11.1662 1.50961 11.1641 1.63652V1.64302Z" fill="#272827"/>
<path d="M2.83721 9.62026V9.62602C2.82609 10.1539 2.97031 10.6734 3.25196 11.12C3.53411 11.5484 3.93741 11.883 4.41046 12.0813C4.93744 12.2961 5.50301 12.4002 6.07196 12.387C6.50969 12.3819 6.94319 12.3008 7.35321 12.1475C7.81436 11.9778 8.24099 11.7261 8.61246 11.4045C8.68571 11.342 8.75471 11.2753 8.82196 11.2068C8.86541 11.4914 8.96194 11.7653 9.10646 12.0143C9.14989 12.0855 9.21096 12.1443 9.28381 12.185C9.35666 12.2257 9.43879 12.2469 9.52221 12.2465L9.80771 12.2433C9.93611 12.2418 10.0588 12.1898 10.1491 12.0985C10.2393 12.0071 10.29 11.8839 10.29 11.7555V6.53052C10.3041 5.88972 10.1834 5.25314 9.93571 4.66201C9.69801 4.11461 9.29249 3.65691 8.77771 3.35501C8.19796 3.03769 7.54349 2.88226 6.88296 2.90501C6.23189 2.88864 5.58556 3.01994 4.99246 3.28901C4.46076 3.53991 4.01339 3.93987 3.70471 4.44027L3.70246 4.44377C3.66114 4.51044 3.63924 4.58731 3.63921 4.66576C3.63979 4.75794 3.66896 4.84766 3.72269 4.92259C3.77644 4.99749 3.85209 5.05389 3.93921 5.08401L4.41796 5.25426C4.49084 5.28016 4.56761 5.29336 4.64496 5.29326C4.74676 5.29306 4.84726 5.27019 4.93914 5.22637C5.03104 5.18252 5.11201 5.11876 5.17621 5.03976C5.22144 4.98439 5.26969 4.93156 5.32071 4.88151C5.63396 4.57751 6.09871 4.39826 6.82071 4.39551C7.13194 4.38814 7.44199 4.43646 7.73621 4.53826C7.94699 4.61416 8.13349 4.74532 8.27621 4.91802C8.54721 5.25052 8.71771 5.76452 8.73371 6.50102C8.03671 6.51202 7.41846 6.54101 6.88371 6.59101C6.21226 6.65091 5.55006 6.78874 4.91046 7.00176H4.90821L4.90246 7.00351C4.31744 7.16306 3.79119 7.48879 3.38746 7.94127C3.01154 8.41449 2.81654 9.00622 2.83746 9.61027L2.83721 9.62026ZM8.38221 9.53902C8.14811 9.94732 7.81734 10.2919 7.41896 10.5425C7.03076 10.7894 6.57899 10.9177 6.11896 10.9118C5.65421 10.9447 5.19269 10.8131 4.81521 10.54C4.68421 10.4338 4.57979 10.2986 4.51021 10.145C4.43806 9.96842 4.40261 9.77899 4.40596 9.58826C4.40246 9.36401 4.45864 9.14289 4.56871 8.94752C4.71571 8.73109 4.92431 8.56379 5.16746 8.46726C5.65074 8.26429 6.16056 8.13154 6.68146 8.07301C7.36349 7.98321 8.05034 7.93494 8.73821 7.92851V8.23027C8.73981 8.69052 8.61689 9.14267 8.38246 9.53877" fill="#272827"/>
</g>
<defs>
<clipPath id="clip0_1_2807">
<rect width="50" height="12.5" fill="white"/>
</clipPath>
</defs>
</svg>

<svg xmlns="http://www.w3.org/2000/svg" width="246.154" height="64" fill="none" viewBox="0 0 50 13"><g clip-path="url(#a)"><path fill="#272827" d="M2.99 4.063v-.484a.488.488 0 0 0-.488-.488H1.57v-.449c-.002-.524.117-.837.223-.952l.005-.006a.546.546 0 0 1 .264-.144 6.364 6.364 0 0 1 1.042-.08h.179A.488.488 0 0 0 3.77.972V.535a.487.487 0 0 0-.394-.48 5.036 5.036 0 0 0-.199-.034A10.457 10.457 0 0 0 2.507 0H2.5C1.715 0 1.046.183.598.664.159 1.147.002 1.829 0 2.658v9.132a.488.488 0 0 0 .488.488h.593a.486.486 0 0 0 .488-.488V4.55h.933a.487.487 0 0 0 .488-.487Z"/><path fill="#7476EB" d="M44.865 12.095a.473.473 0 0 0 .34.152h.604a.486.486 0 0 0 .46-.327l3.7-10.615a.485.485 0 0 0-.236-.595.488.488 0 0 0-.224-.054h-.593a.487.487 0 0 0-.46.327l-3.7 10.615a.446.446 0 0 0-.03.158.5.5 0 0 0 .139.34"/><path fill="#272827" d="M33.027 12.246h.577a.49.49 0 0 0 .488-.488v-4.98c.003-.285.05-.57.14-.84.093-.287.232-.555.411-.796.166-.226.377-.415.619-.556.237-.133.506-.199.778-.192.297-.019.592.06.84.224.22.169.385.4.475.662.126.356.187.731.18 1.109v5.37a.488.488 0 0 0 .487.487h.578a.487.487 0 0 0 .487-.488v-4.98c.003-.285.05-.57.14-.84.093-.287.231-.555.411-.796.166-.226.377-.415.619-.556.237-.133.506-.2.778-.192.297-.019.591.06.84.223.22.17.385.4.475.663.126.355.186.731.18 1.108v5.37a.488.488 0 0 0 .487.488h.578a.488.488 0 0 0 .487-.488v-5.51a4.354 4.354 0 0 0-.313-1.731 2.599 2.599 0 0 0-1.007-1.196 2.962 2.962 0 0 0-1.598-.418h-.01a3.117 3.117 0 0 0-1.691.482 3.217 3.217 0 0 0-.858.81 2.55 2.55 0 0 0-.828-.872 2.889 2.889 0 0 0-1.576-.42h-.012a3.091 3.091 0 0 0-1.675.482c-.15.098-.29.208-.421.331v-.175a.489.489 0 0 0-.481-.483h-.585a.487.487 0 0 0-.488.488v8.212a.488.488 0 0 0 .488.488ZM25.331 11.813a4.02 4.02 0 0 0 2.175.575h.01c.75.016 1.49-.176 2.137-.555a3.619 3.619 0 0 0 1.417-1.652c.33-.796.492-1.652.474-2.514a6.278 6.278 0 0 0-.464-2.495 3.727 3.727 0 0 0-1.392-1.68 3.946 3.946 0 0 0-2.171-.585h-.01a4.048 4.048 0 0 0-2.147.563 3.61 3.61 0 0 0-1.416 1.653 6.248 6.248 0 0 0-.465 2.546 6.191 6.191 0 0 0 .454 2.464c.281.69.77 1.278 1.398 1.68Zm.375-6.636c.197-.252.452-.453.744-.583a2.64 2.64 0 0 1 1.059-.2 2.49 2.49 0 0 1 1.032.202c.293.137.549.343.746.6.426.546.668 1.347.669 2.455v.001c0 1.142-.242 1.953-.653 2.477a1.927 1.927 0 0 1-.738.582 2.625 2.625 0 0 1-1.056.2 2.112 2.112 0 0 1-1.787-.806c-.431-.547-.675-1.34-.675-2.437v-.002c0-1.152.245-1.967.66-2.489M15.189.519v11.24a.486.486 0 0 0 .488.487h.585a.49.49 0 0 0 .48-.48V6.78a2.625 2.625 0 0 1 .6-1.619c.191-.234.428-.425.697-.562.285-.141.6-.21.916-.204.357-.02.712.065 1.022.242.245.158.435.39.542.66.137.348.204.72.197 1.093v5.37a.488.488 0 0 0 .487.488h.6a.489.489 0 0 0 .481-.48V6.247a3.93 3.93 0 0 0-.362-1.754 2.745 2.745 0 0 0-1.099-1.182 3.371 3.371 0 0 0-1.71-.409h-.007a3.467 3.467 0 0 0-1.798.482 3.4 3.4 0 0 0-.566.422V.52a.488.488 0 0 0-.488-.488h-.585a.49.49 0 0 0-.482.481l.002.007ZM11.164 1.643V9.65c.002.82.162 1.5.595 1.982.45.489 1.125.675 1.92.675.094 0 .185-.002.275-.008.117-.006.233-.03.343-.072a.488.488 0 0 0 .31-.452v-.438a.488.488 0 0 0-.489-.487h-.229a2.313 2.313 0 0 1-.662-.081.547.547 0 0 1-.265-.143l-.005-.006c-.107-.115-.225-.429-.225-.953V4.52h1.018a.49.49 0 0 0 .48-.48v-.491a.488.488 0 0 0-.487-.488h-1.01V1.643a.488.488 0 0 0-.488-.488h-.6a.49.49 0 0 0-.48.482v.006ZM2.837 9.62v.006a2.694 2.694 0 0 0 .415 1.494c.282.428.685.763 1.158.961a4.147 4.147 0 0 0 1.662.306 3.785 3.785 0 0 0 1.281-.24 4.073 4.073 0 0 0 1.469-.94 2.3 2.3 0 0 0 .284.807.485.485 0 0 0 .416.232l.286-.003a.488.488 0 0 0 .482-.488V6.531a4.575 4.575 0 0 0-.354-1.869 2.815 2.815 0 0 0-1.158-1.307 3.682 3.682 0 0 0-1.895-.45 4.314 4.314 0 0 0-1.89.384c-.532.25-.98.65-1.288 1.151l-.003.004a.422.422 0 0 0-.063.222.446.446 0 0 0 .3.418l.479.17a.675.675 0 0 0 .521-.028.686.686 0 0 0 .237-.186c.045-.056.094-.108.145-.158.313-.304.778-.484 1.5-.486a2.61 2.61 0 0 1 .915.142c.211.076.397.207.54.38.271.333.442.847.458 1.583-.697.011-1.316.04-1.85.09a8.688 8.688 0 0 0-1.974.41h-.002l-.006.003a3.136 3.136 0 0 0-1.515.937 2.542 2.542 0 0 0-.55 1.67v.01Zm5.545-.081a2.875 2.875 0 0 1-.963 1.004c-.388.246-.84.375-1.3.369a1.985 1.985 0 0 1-1.304-.372 1.085 1.085 0 0 1-.305-.395 1.407 1.407 0 0 1-.104-.557 1.265 1.265 0 0 1 .163-.64c.147-.217.355-.384.598-.48a5.494 5.494 0 0 1 1.514-.395c.682-.09 1.37-.138 2.057-.144v.301c.002.46-.121.913-.356 1.309"/></g><defs><clipPath id="a"><path fill="#fff" d="M0 0h50v12.5H0z"/></clipPath></defs></svg>
